X:1
T:Sheep-Shearing Song
M:4/4
L:1/4
K:D
 A,| D A, D F| A3 A,| F A G F| E- F- G| A| d c d A| B-c/2-B/2 AA/2-G/2|\
 F G E E| D2 A- G| F E D C| D3 A,| D A, D F| A3 A| B B B A| B2 B c|\
 d c B B| A3 A| A E E F| G F G A| B A G F| E- F- G A| d c d A| B B AA/2-G/2|\
 F G E E| D3||
